teeny/solid/ethereum.svg

<svg width="15" height="15" viewBox="0 0 15 15" fill="none" xmlns="http://www.w3.org/2000/svg">
<path fill-rule="evenodd" clip-rule="evenodd" d="M7.5 0C7.64839 0 7.78911 0.0659115 7.88411 0.179908L12.8841 6.17991C13.0224 6.34585 13.0385 6.58183 12.924 6.765L7.924 14.765C7.83263 14.9112 7.67239 15 7.5 15C7.3276 15 7.16737 14.9112 7.076 14.765L2.076 6.765C1.96152 6.58183 1.97761 6.34585 2.11589 6.17991L7.11589 0.179908C7.21089 0.0659115 7.35161 0 7.5 0ZM3.24096 6.74213L7.5 5.03852L11.759 6.74213L7.5 13.5566L3.24096 6.74213ZM10.8506 5.30171L7.5 3.96148L4.14943 5.30171L7.5 1.28102L10.8506 5.30171Z" fill="black"/>
</svg>

<svg viewBox="0 0 15 15" xmlns="http://www.w3.org/2000/svg"><path fill-rule="evenodd" d="M7.5 0c.14 0 .28.06.38.17l4.99 6c.13.16.15.4.03.58l-5 8c-.1.14-.26.23-.43.23 -.18 0-.34-.09-.43-.24l-5-8c-.12-.19-.1-.42.03-.59l5-6.01c.09-.12.23-.18.38-.18ZM3.24 6.74l4.25-1.71 4.259 1.7 -4.259 6.81 -4.26-6.82Zm7.6-1.45L7.48 3.94 4.12 5.28l3.35-4.03 3.35 4.02Z"/></svg>
